src/topics/icons/aws-sns.svg

<svg height="257" preserveAspectRatio="xMidYMid" viewBox="0 0 256 257" width="256" xmlns="http://www.w3.org/2000/svg"><path d="m98.875 232.033-26.433-7.408-25.001-28.508 31.272-.863z" fill="#995b80"/><path d="m37.75 213.233-14.875-4.166-14.058-16.034 17.082-2.809z" fill="#995b80"/><path d="m0 191.017 15.204 3.091 2.207-3.882v-131.723l-2.207-2.561-15.204 8.658z" fill="#7b3f65"/><path d="m73.933 69.708-58.725-13.766v138.166l8.798-.818 13.744 19.943 10.6-22.205 25.583-2.378z" fill="#c17b9d"/><path d="m33.958 198.133 26.063 5.25 1.716-4.045v-161.898l-1.716-3.665-26.063 13.208z" fill="#7b3f65"/><path d="m208.734 81.516-148.713-47.741v169.612l17.221-2.216 21.633 30.862 17.126-35.85 92.733-11.933z" fill="#c17b9d"/><path d="m181.833 256.492-37.566-10.525-35.509-40.5 46.033-.468z" fill="#995b80"/><path d="m89.591 208.95 38.33 7.417 2.977-2.566v-209.684l-2.977-4.117-38.33 19.158z" fill="#7b3f65"/><path d="m256 64.033-128.075-64.033v216.367l22.597-4.528 31.311 44.653 26.901-56.309-.017-.002 47.283-9.473z" fill="#c17b9d"/></svg>

<?xml version="1.0" encoding="UTF-8" standalone="no"?>
<svg width="256px" height="257px" viewBox="0 0 256 257" version="1.1" xmlns="http://www.w3.org/2000/svg" xmlns:xlink="http://www.w3.org/1999/xlink" preserveAspectRatio="xMidYMid">
	<g>
		<path d="M98.875,232.033 L72.442,224.625 L47.441,196.117 L78.713,195.254 L98.875,232.033" fill="#995B80"></path>
		<path d="M37.75,213.233 L22.875,209.067 L8.817,193.033 L25.899,190.224 L37.75,213.233" fill="#995B80"></path>
		<path d="M0,191.017 L15.204,194.108 L17.411,190.226 L17.411,58.503 L15.204,55.942 L0,64.6 L0,191.017" fill="#7B3F65"></path>
		<path d="M73.933,69.708 L15.208,55.942 L15.208,194.108 L24.006,193.29 L37.75,213.233 L48.35,191.028 L73.933,188.65 L73.933,69.708" fill="#C17B9D"></path>
		<path d="M33.958,198.133 L60.021,203.383 L61.737,199.338 L61.737,37.44 L60.021,33.775 L33.958,46.983 L33.958,198.133" fill="#7B3F65"></path>
		<path d="M208.734,81.516 L60.021,33.775 L60.021,203.387 L77.242,201.171 L98.875,232.033 L116.001,196.183 L208.734,184.25 L208.734,81.516" fill="#C17B9D"></path>
		<path d="M181.833,256.492 L144.267,245.967 L108.758,205.467 L154.791,204.999 L181.833,256.492" fill="#995B80"></path>
		<path d="M89.591,208.95 L127.921,216.367 L130.898,213.801 L130.898,4.117 L127.921,0 L89.591,19.158 L89.591,208.95" fill="#7B3F65"></path>
		<path d="M256,64.033 L127.925,0 L127.925,216.367 L150.522,211.839 L181.833,256.492 L208.734,200.183 L208.717,200.181 L256,190.708 L256,64.033" fill="#C17B9D"></path>
	</g>
</svg>
